PG39WCDM_HDR_Tonemaped_Gamma_HDR.cube
TITLE "PG39WCDM HDR Tonemaped Gamma - ColorControl LUT - HDR"
DOMAIN_MIN 0.0 0.0 0.0
DOMAIN_MAX 1.0 1.0 1.0
LUT_3D_SIZE 5
# HDR LUT using BT.2020 color space and SMPTE ST 2084 (PQ) encoding
# Max luminance: 1300 cd/m²
# Min luminance: 0.0007 cd/m²
0.005154 0.005154 0.005154
0.250000 0.005154 0.005154
0.500000 0.005154 0.005154
0.750000 0.005154 0.005154
1.000000 0.005154 0.005154
0.005154 0.250000 0.005154
0.250000 0.250000 0.005154
0.500000 0.250000 0.005154
0.750000 0.250000 0.005154
1.000000 0.250000 0.005154
0.005154 0.500000 0.005154
0.250000 0.500000 0.005154
0.500000 0.500000 0.005154
0.750000 0.500000 0.005154
1.000000 0.500000 0.005154
0.005154 0.750000 0.005154
0.250000 0.750000 0.005154
0.500000 0.750000 0.005154
0.750000 0.750000 0.005154
1.000000 0.750000 0.005154
0.005154 1.000000 0.005154
0.250000 1.000000 0.005154
0.500000 1.000000 0.005154
0.750000 1.000000 0.005154
1.000000 1.000000 0.005154
0.005154 0.005154 0.250000
0.250000 0.005154 0.250000
0.500000 0.005154 0.250000
0.750000 0.005154 0.250000
1.000000 0.005154 0.250000
0.005154 0.250000 0.250000
0.250000 0.250000 0.250000
0.500000 0.250000 0.250000
0.750000 0.250000 0.250000
1.000000 0.250000 0.250000
0.005154 0.500000 0.250000
0.250000 0.500000 0.250000
0.500000 0.500000 0.250000
0.750000 0.500000 0.250000
1.000000 0.500000 0.250000
0.005154 0.750000 0.250000
0.250000 0.750000 0.250000
0.500000 0.750000 0.250000
0.750000 0.750000 0.250000
1.000000 0.750000 0.250000
0.005154 1.000000 0.250000
0.250000 1.000000 0.250000
0.500000 1.000000 0.250000
0.750000 1.000000 0.250000
1.000000 1.000000 0.250000
0.005154 0.005154 0.500000
0.250000 0.005154 0.500000
0.500000 0.005154 0.500000
0.750000 0.005154 0.500000
1.000000 0.005154 0.500000
0.005154 0.250000 0.500000
0.250000 0.250000 0.500000
0.500000 0.250000 0.500000
0.750000 0.250000 0.500000
1.000000 0.250000 0.500000
0.005154 0.500000 0.500000
0.250000 0.500000 0.500000
0.500000 0.500000 0.500000
0.750000 0.500000 0.500000
1.000000 0.500000 0.500000
0.005154 0.750000 0.500000
0.250000 0.750000 0.500000
0.500000 0.750000 0.500000
0.750000 0.750000 0.500000
1.000000 0.750000 0.500000
0.005154 1.000000 0.500000
0.250000 1.000000 0.500000
0.500000 1.000000 0.500000
0.750000 1.000000 0.500000
1.000000 1.000000 0.500000
0.005154 0.005154 0.750000
0.250000 0.005154 0.750000
0.500000 0.005154 0.750000
0.750000 0.005154 0.750000
1.000000 0.005154 0.750000
0.005154 0.250000 0.750000
0.250000 0.250000 0.750000
0.500000 0.250000 0.750000
0.750000 0.250000 0.750000
1.000000 0.250000 0.750000
0.005154 0.500000 0.750000
0.250000 0.500000 0.750000
0.500000 0.500000 0.750000
0.750000 0.500000 0.750000
1.000000 0.500000 0.750000
0.005154 0.750000 0.750000
0.250000 0.750000 0.750000
0.500000 0.750000 0.750000
0.750000 0.750000 0.750000
1.000000 0.750000 0.750000
0.005154 1.000000 0.750000
0.250000 1.000000 0.750000
0.500000 1.000000 0.750000
0.750000 1.000000 0.750000
1.000000 1.000000 0.750000
0.005154 0.005154 1.000000
0.250000 0.005154 1.000000
0.500000 0.005154 1.000000
0.750000 0.005154 1.000000
1.000000 0.005154 1.000000
0.005154 0.250000 1.000000
0.250000 0.250000 1.000000
0.500000 0.250000 1.000000
0.750000 0.250000 1.000000
1.000000 0.250000 1.000000
0.005154 0.500000 1.000000
0.250000 0.500000 1.000000
0.500000 0.500000 1.000000
0.750000 0.500000 1.000000
1.000000 0.500000 1.000000
0.005154 0.750000 1.000000
0.250000 0.750000 1.000000
0.500000 0.750000 1.000000
0.750000 0.750000 1.000000
1.000000 0.750000 1.000000
0.005154 1.000000 1.000000
0.250000 1.000000 1.000000
0.500000 1.000000 1.000000
0.750000 1.000000 1.000000
1.000000 1.000000 1.000000
