PG39WCDM_HDR_Correction_SDR.cube
TITLE "PG39WCDM HDR Correction - ColorControl LUT - SDR"
DOMAIN_MIN 0.0 0.0 0.0
DOMAIN_MAX 1.0 1.0 1.0
LUT_3D_SIZE 9
# SDR LUT using sRGB/Rec.709 color space with gamma encoding
# Max luminance: 100 cd/m²
# Min luminance: 0 cd/m²
# Companion SDR LUT for standard dynamic range workflows
0.000000 0.000000 0.000000
0.108140 0.005314 0.002951
0.221432 0.018841 0.010463
0.334724 0.042879 0.023860
0.448016 0.071332 0.043873
0.561308 0.099785 0.066142
0.674599 0.128238 0.088410
0.787891 0.156691 0.110679
0.901183 0.185144 0.132948
0.036528 0.121975 0.009674
0.124005 0.124157 0.012625
0.229376 0.129551 0.020137
0.339690 0.138658 0.033533
0.451504 0.151329 0.052405
0.563938 0.167115 0.072704
0.676678 0.185464 0.093655
0.789591 0.205846 0.114995
0.902608 0.227812 0.136582
0.100006 0.244874 0.034297
0.157434 0.245924 0.037248
0.248313 0.248572 0.044563
0.351953 0.253217 0.056039
0.460236 0.260028 0.070699
0.570562 0.269048 0.087578
0.681932 0.280222 0.105955
0.793894 0.293426 0.125342
0.906221 0.308487 0.145423
0.163533 0.367774 0.070627
0.203453 0.368423 0.072581
0.278492 0.370071 0.077374
0.372622 0.372987 0.085367
0.475312 0.377324 0.096315
0.582139 0.383176 0.109736
0.691174 0.390591 0.125109
0.801495 0.399573 0.141972
0.912618 0.410097 0.159960
0.227060 0.490673 0.107146
0.256468 0.491128 0.108520
0.317775 0.492283 0.111946
0.401320 0.494335 0.117822
0.496931 0.497402 0.126171
0.599024 0.501572 0.136816
0.704787 0.506904 0.149471
0.812758 0.513434 0.163815
0.922135 0.521182 0.179546
0.290587 0.613572 0.143666
0.313299 0.613914 0.144702
0.363718 0.614785 0.147306
0.436997 0.616333 0.151836
0.524787 0.618653 0.158403
0.621239 0.621817 0.166976
0.722923 0.625882 0.177424
0.827883 0.630888 0.189561
0.934982 0.636864 0.203173
0.354114 0.736471 0.180185
0.372309 0.736742 0.181004
0.414323 0.737429 0.183071
0.478380 0.738653 0.186697
0.558266 0.740490 0.192013
0.648553 0.743000 0.199054
0.745548 0.746232 0.207780
0.846933 0.750225 0.218091
0.951269 0.755008 0.229856
0.417641 0.859371 0.216705
0.432638 0.859592 0.217375
0.468165 0.860153 0.219069
0.524267 0.861154 0.222054
0.596614 0.862657 0.226464
0.680564 0.864714 0.232360
0.772483 0.867365 0.239747
0.869857 0.870647 0.248584
0.971014 0.874587 0.258794
0.481168 0.982270 0.253224
0.493809 0.982455 0.253786
0.524276 0.982926 0.255209
0.573645 0.983765 0.257724
0.639066 0.985027 0.261456
0.716782 0.986753 0.266478
0.803447 0.988981 0.272818
0.896513 0.991742 0.280467
0.994165 0.995062 0.289389
0.002451 0.002076 0.119788
0.109273 0.007390 0.121026
0.221975 0.020917 0.124123
0.335060 0.044822 0.129467
0.448251 0.072700 0.137123
0.561485 0.100817 0.146979
0.674739 0.129055 0.158810
0.788005 0.157359 0.172348
0.901279 0.185704 0.187320
0.038979 0.122832 0.123801
0.125000 0.125000 0.125000
0.229898 0.130360 0.128004
0.340020 0.139414 0.133195
0.451737 0.152021 0.140650
0.564113 0.167739 0.150271
0.676817 0.186023 0.161855
0.789704 0.206345 0.175146
0.902703 0.228257 0.189882
0.101222 0.245285 0.133485
0.158219 0.246332 0.134600
0.248790 0.248976 0.137397
0.352269 0.253612 0.142247
0.460463 0.260411 0.149247
0.570736 0.269416 0.158336
0.682070 0.280574 0.169347
0.794008 0.293759 0.182061
0.906316 0.308800 0.196239
0.164287 0.368028 0.149211
0.204049 0.368677 0.150208
0.278910 0.370323 0.152716
0.372917 0.373237 0.157086
0.475531 0.377570 0.163435
0.582308 0.383418 0.171744
0.691309 0.390826 0.181902
0.801607 0.399803 0.193737
0.912713 0.410319 0.207050
0.227588 0.490851 0.170098
0.256927 0.491305 0.170969
0.318133 0.492460 0.173164
0.401590 0.494511 0.177007
0.497137 0.497577 0.182628
0.599187 0.501745 0.190048
0.704919 0.507074 0.199206
0.812868 0.513602 0.209985
0.922228 0.521346 0.222230
0.290985 0.613706 0.194962
0.313663 0.614048 0.195715
0.364022 0.614918 0.197615
0.437239 0.616466 0.200956
0.524979 0.618785 0.205872
0.621395 0.621949 0.212411
0.723051 0.626012 0.220554
0.827990 0.631017 0.230230
0.935073 0.636991 0.241332
0.354428 0.736577 0.222736
0.372605 0.736847 0.223386
0.414582 0.737535 0.225029
0.478597 0.738758 0.227927
0.558444 0.740595 0.232211
0.648700 0.743105 0.237947
0.745671 0.746336 0.245144
0.847037 0.750328 0.253766
0.951358 0.755110 0.263746
0.417898 0.859457 0.252600
0.432884 0.859678 0.253163
0.468387 0.860240 0.254590
0.524460 0.861240 0.257112
0.596778 0.862743 0.260854
0.680702 0.864799 0.265889
0.772600 0.867451 0.272245
0.869957 0.870732 0.279913
0.971101 0.874671 0.288854
0.481383 0.982342 0.283966
0.494017 0.982527 0.284457
0.524469 0.982998 0.285704
0.573817 0.983838 0.287912
0.639216 0.985099 0.291198
0.716912 0.986825 0.295636
0.803559 0.989053 0.301265
0.896609 0.991814 0.308093
0.994250 0.995133 0.316103
0.008691 0.007360 0.241168
0.112107 0.012674 0.241762
0.223351 0.026201 0.243265
0.335914 0.049544 0.245921
0.448849 0.076093 0.249857
0.561935 0.103403 0.255143
0.675095 0.131110 0.261801
0.788296 0.159045 0.269815
0.901522 0.187121 0.279135
0.044987 0.124988 0.243108
0.127500 0.127120 0.243696
0.231221 0.132396 0.245186
0.340859 0.141320 0.247819
0.452329 0.153768 0.251720
0.564561 0.169318 0.256962
0.677171 0.187438 0.263568
0.789994 0.207609 0.271521
0.902946 0.229387 0.280775
0.104258 0.246326 0.247968
0.160197 0.247369 0.248543
0.250000 0.250000 0.250000
0.353073 0.254615 0.252575
0.461041 0.261383 0.256394
0.571176 0.270351 0.261528
0.682420 0.281466 0.268003
0.794295 0.294604 0.275809
0.906558 0.309597 0.284901
0.166190 0.368673 0.256373
0.205559 0.369321 0.256927
0.279970 0.370964 0.258330
0.373667 0.373872 0.260810
0.476086 0.378196 0.264492
0.582737 0.384032 0.269449
0.691654 0.391426 0.275709
0.801891 0.400386 0.283268
0.912952 0.410884 0.292089
0.228926 0.491303 0.268455
0.258093 0.491757 0.268980
0.319041 0.492910 0.270310
0.402275 0.494959 0.272665
0.497662 0.498021 0.276164
0.599601 0.502184 0.280882
0.705255 0.507508 0.286852
0.813146 0.514029 0.294077
0.922464 0.521765 0.302529
0.291994 0.614046 0.284066
0.314586 0.614388 0.284557
0.364794 0.615258 0.285804
0.437856 0.616804 0.288011
0.525470 0.619122 0.291296
0.621790 0.622283 0.295732
0.723376 0.626344 0.301358
0.828262 0.631345 0.308184
0.935305 0.637316 0.316192
0.355226 0.736846 0.302884
0.373356 0.737116 0.303340
0.415240 0.737803 0.304496
0.479148 0.739026 0.306545
0.558897 0.740862 0.309599
0.649074 0.743370 0.313731
0.745983 0.746600 0.318983
0.847301 0.750590 0.325372
0.951585 0.755370 0.332890
0.418550 0.859677 0.324502
0.433508 0.859897 0.324921
0.468953 0.860459 0.325987
0.524951 0.861459 0.327878
0.597195 0.862962 0.330698
0.681054 0.865017 0.334520
0.772898 0.867668 0.339390
0.870212 0.870948 0.345329
0.971322 0.874886 0.352339
0.481930 0.982526 0.348496
0.494547 0.982711 0.348881
0.524960 0.983182 0.349860
0.574255 0.984021 0.351597
0.639597 0.985282 0.354191
0.717240 0.987008 0.357713
0.803842 0.989236 0.362209
0.896855 0.991996 0.367706
0.994463 0.995314 0.374211
0.019818 0.016783 0.362548
0.117001 0.022097 0.362916
0.225781 0.035624 0.363849
0.337429 0.057295 0.365505
0.449913 0.081856 0.367981
0.562736 0.107874 0.371345
0.675728 0.134700 0.375644
0.788814 0.162008 0.380905
0.901957 0.189620 0.387141
0.054586 0.128745 0.363751
0.131842 0.130817 0.364117
0.233559 0.135951 0.365046
0.342349 0.144656 0.366696
0.453383 0.156834 0.369162
0.565358 0.172095 0.372513
0.677802 0.189932 0.376796
0.790511 0.209842 0.382038
0.903380 0.231387 0.388251
0.109481 0.248172 0.366790
0.163663 0.249205 0.367152
0.252141 0.251814 0.368072
0.354500 0.256392 0.369706
0.462070 0.263108 0.372148
0.571962 0.272010 0.375466
0.683045 0.283048 0.379708
0.794808 0.296104 0.384902
0.906989 0.311012 0.391060
0.169528 0.369821 0.372135
0.208222 0.370466 0.372491
0.281850 0.372103 0.373395
0.375000 0.375000 0.375000
0.477075 0.379309 0.377400
0.583503 0.385124 0.380663
0.692268 0.392493 0.384835
0.802397 0.401424 0.389945
0.913379 0.411890 0.396007
0.231290 0.492107 0.380006
0.260158 0.492561 0.380353
0.320653 0.493712 0.381234
0.403493 0.495756 0.382799
0.498597 0.498812 0.385140
0.600339 0.502967 0.388324
0.705853 0.508281 0.392396
0.813644 0.514789 0.397388
0.922885 0.522511 0.403313
0.293783 0.614652 0.390489
0.316225 0.614994 0.390825
0.366166 0.615862 0.391677
0.438953 0.617407 0.393192
0.526343 0.619722 0.395458
0.622495 0.622879 0.398540
0.723955 0.626935 0.402486
0.828748 0.631930 0.407326
0.935719 0.637894 0.413076
0.356643 0.737325 0.403563
0.374690 0.737595 0.403886
0.416412 0.738281 0.404704
0.480128 0.739503 0.406160
0.559705 0.741337 0.408337
0.649740 0.743844 0.411301
0.746539 0.747071 0.415098
0.847772 0.751058 0.419760
0.951989 0.755834 0.425303
0.419710 0.860068 0.419122
0.434619 0.860289 0.419430
0.469961 0.860850 0.420211
0.525825 0.861850 0.421601
0.597936 0.863351 0.423681
0.681680 0.865405 0.426514
0.773430 0.868054 0.430145
0.870667 0.871332 0.434608
0.971715 0.875268 0.439920
0.482904 0.982855 0.437001
0.495489 0.983040 0.437293
0.525834 0.983510 0.438036
0.575035 0.984349 0.439355
0.640276 0.985609 0.441332
0.717826 0.987334 0.444026
0.804347 0.989561 0.447482
0.897292 0.992320 0.451733
0.994845 0.995637 0.456798
0.036563 0.030963 0.483929
0.124019 0.036278 0.484186
0.229384 0.049093 0.484839
0.339695 0.067715 0.486002
0.451508 0.089939 0.487745
0.563940 0.114294 0.490124
0.676680 0.139928 0.493181
0.789592 0.166362 0.496948
0.902609 0.193315 0.501448
0.067134 0.134204 0.484771
0.138123 0.136195 0.485027
0.237029 0.141134 0.485679
0.344575 0.149534 0.486840
0.454963 0.161334 0.488579
0.566554 0.176186 0.490953
0.678750 0.193620 0.494003
0.791287 0.213154 0.497762
0.904031 0.234359 0.502253
0.116928 0.250919 0.486906
0.168739 0.251940 0.487161
0.255324 0.254517 0.487809
0.356636 0.259039 0.488963
0.463613 0.265678 0.490693
0.573141 0.274483 0.493054
0.683984 0.285411 0.496088
0.795579 0.298346 0.499827
0.907637 0.313128 0.504295
0.174424 0.371540 0.490684
0.212160 0.372182 0.490937
0.284650 0.373809 0.491579
0.376995 0.376690 0.492722
0.478557 0.380976 0.494435
0.584652 0.386761 0.496774
0.693190 0.394092 0.499779
0.803158 0.402979 0.503484
0.914021 0.413397 0.507912
0.234798 0.493315 0.496302
0.263229 0.493767 0.496551
0.323060 0.494915 0.497184
0.405317 0.496953 0.498311
0.500000 0.500000 0.500000
0.601447 0.504143 0.502306
0.706753 0.509440 0.505270
0.814391 0.515931 0.508925
0.923519 0.523631 0.513293
0.296452 0.615563 0.503880
0.318673 0.615904 0.504125
0.368220 0.616771 0.504746
0.440598 0.618312 0.505851
0.527653 0.620623 0.507509
0.623552 0.623774 0.509772
0.724825 0.627823 0.512682
0.829477 0.632809 0.516270
0.936341 0.638762 0.520561
0.358763 0.738045 0.513479
0.376687 0.738314 0.513717
0.418167 0.739000 0.514324
0.481599 0.740220 0.515403
0.560916 0.742052 0.517023
0.650742 0.744555 0.519233
0.747376 0.747779 0.522077
0.848480 0.751760 0.525584
0.952597 0.756531 0.529780
0.421448 0.860657 0.525103
0.436284 0.860877 0.525335
0.471471 0.861438 0.525925
0.527137 0.862437 0.526975
0.599050 0.863937 0.528549
0.682621 0.865989 0.530699
0.774228 0.868636 0.533465
0.871351 0.871911 0.536879
0.972307 0.875844 0.540964
0.484364 0.983348 0.538717
0.496903 0.983533 0.538941
0.527146 0.984003 0.539512
0.576206 0.984841 0.540528
0.641297 0.986101 0.542053
0.718706 0.987825 0.544136
0.805106 0.990050 0.546816
0.897949 0.992807 0.550125
0.995418 0.996122 0.554086
0.057127 0.049624 0.605309
0.133061 0.054085 0.605502
0.234224 0.064422 0.605995
0.342774 0.080259 0.606871
0.453684 0.100093 0.608186
0.565586 0.122582 0.609985
0.677983 0.146797 0.612303
0.790658 0.172146 0.615169
0.903504 0.198261 0.618605
0.081864 0.141353 0.605943
0.146300 0.143243 0.606136
0.241696 0.147945 0.606627
0.347602 0.155972 0.607503
0.457119 0.167301 0.608816
0.568191 0.181639 0.610613
0.680048 0.198558 0.612928
0.792350 0.217606 0.615789
0.904924 0.238369 0.619222
0.126464 0.254632 0.607552
0.175450 0.255636 0.607745
0.259617 0.258171 0.608235
0.359540 0.262621 0.609107
0.465719 0.269157 0.610416
0.574753 0.277835 0.612207
0.685269 0.288614 0.614514
0.796634 0.301388 0.617366
0.908525 0.316002 0.620787
0.180911 0.373883 0.610409
0.217433 0.374519 0.610601
0.288441 0.376135 0.611088
0.379711 0.378994 0.611955
0.480582 0.383248 0.613256
0.586224 0.388992 0.615036
0.694453 0.396273 0.617329
0.804201 0.405101 0.620165
0.914901 0.415453 0.623567
0.239514 0.494966 0.614676
0.267376 0.495416 0.614866
0.326328 0.496559 0.615349
0.407804 0.498589 0.616208
0.501916 0.501623 0.617498
0.602964 0.505749 0.619262
0.707984 0.511026 0.621536
0.815415 0.517491 0.624347
0.924386 0.525163 0.627719
0.300067 0.616810 0.620469
0.321994 0.617150 0.620656
0.371014 0.618014 0.621133
0.442841 0.619552 0.621982
0.529443 0.621856 0.623257
0.625000 0.625000 0.625000
0.726017 0.629038 0.627247
0.830477 0.634012 0.630025
0.937193 0.639951 0.633359
0.361647 0.739031 0.627863
0.379406 0.739300 0.628047
0.420560 0.739984 0.628517
0.483607 0.741203 0.629353
0.562574 0.743031 0.630609
0.652112 0.745530 0.632326
0.748521 0.748748 0.634539
0.849451 0.752723 0.637277
0.953430 0.757486 0.640562
0.423818 0.861463 0.636901
0.438555 0.861683 0.637083
0.473534 0.862243 0.637543
0.528929 0.863241 0.638364
0.600574 0.864739 0.639597
0.683909 0.866789 0.641284
0.775322 0.869433 0.643457
0.872288 0.872704 0.646147
0.973118 0.876632 0.649374
0.486358 0.984025 0.647597
0.498834 0.984209 0.647775
0.528938 0.984679 0.648226
0.577807 0.985516 0.649029
0.642693 0.986775 0.650236
0.719911 0.988497 0.651887
0.806145 0.990720 0.654016
0.898849 0.993475 0.656649
0.996204 0.996787 0.659810
0.077739 0.068856 0.726689
0.143927 0.072412 0.726842
0.240324 0.080890 0.727231
0.346709 0.094402 0.727923
0.456482 0.111992 0.728964
0.567707 0.132564 0.730388
0.679664 0.155226 0.732225
0.792035 0.179338 0.734501
0.904660 0.204468 0.737237
0.098135 0.150095 0.727190
0.156236 0.151875 0.727343
0.247587 0.156311 0.727731
0.351472 0.163915 0.728423
0.459890 0.174706 0.729462
0.570299 0.188444 0.730885
0.681723 0.204755 0.732721
0.793723 0.223220 0.734995
0.906077 0.243446 0.737728
0.137849 0.259347 0.728462
0.183749 0.260330 0.728614
0.265053 0.262812 0.729002
0.363257 0.267173 0.729692
0.468427 0.273584 0.730729
0.576831 0.282103 0.732149
0.686927 0.292699 0.733981
0.797998 0.305272 0.736249
0.909672 0.319676 0.738977
0.188952 0.376888 0.730724
0.224051 0.377518 0.730875
0.293260 0.379118 0.731261
0.383191 0.381950 0.731949
0.483185 0.386165 0.732982
0.588250 0.391856 0.734396
0.696083 0.399073 0.736220
0.805548 0.407827 0.738480
0.916038 0.418096 0.741196
0.245465 0.497093 0.734110
0.272634 0.497540 0.734261
0.330500 0.498677 0.734644
0.410994 0.500695 0.735328
0.504382 0.503714 0.736354
0.604918 0.507819 0.737760
0.709574 0.513069 0.739574
0.816737 0.519502 0.741820
0.925508 0.527136 0.744521
0.304671 0.618418 0.738722
0.326232 0.618757 0.738872
0.374593 0.619618 0.739252
0.445724 0.621151 0.739930
0.531749 0.623448 0.740949
0.626867 0.626581 0.742343
0.727556 0.630607 0.744142
0.831768 0.635565 0.746371
0.938294 0.641485 0.749050
0.365337 0.740304 0.744636
0.382889 0.740573 0.744784
0.423632 0.741256 0.745160
0.486191 0.742471 0.745831
0.564709 0.744296 0.746839
0.653880 0.746789 0.748219
0.750000 0.750000 0.750000
0.850704 0.753967 0.752206
0.954506 0.758719 0.754858
0.426861 0.862505 0.751903
0.441472 0.862725 0.752049
0.476186 0.863284 0.752421
0.531238 0.864280 0.753083
0.602539 0.865776 0.754079
0.685572 0.867823 0.755441
0.776735 0.870462 0.757200
0.873498 0.873728 0.759379
0.974165 0.877650 0.761999
0.488923 0.984899 0.760556
0.501319 0.985083 0.760700
0.531247 0.985553 0.761066
0.579871 0.986389 0.761719
0.644494 0.987646 0.762700
0.721467 0.989366 0.764042
0.807487 0.991587 0.765775
0.900013 0.994338 0.767922
0.997220 0.997646 0.770504
0.098350 0.088088 0.848070
0.156374 0.091011 0.848194
0.247670 0.098103 0.848512
0.351527 0.109720 0.849078
0.459930 0.125302 0.849929
0.570329 0.144021 0.851094
0.681747 0.165087 0.852599
0.793742 0.187870 0.854465
0.906094 0.211905 0.856711
0.115483 0.160283 0.848479
0.167743 0.161947 0.848603
0.254694 0.166105 0.848921
0.356212 0.173259 0.849487
0.463307 0.183468 0.850337
0.572906 0.196550 0.851501
0.683797 0.212181 0.853005
0.795425 0.229985 0.854870
0.907508 0.249594 0.857114
0.150807 0.265074 0.849519
0.193533 0.266032 0.849643
0.271637 0.268453 0.849960
0.367813 0.272710 0.850525
0.471766 0.278973 0.851374
0.579401 0.287306 0.852537
0.688981 0.297685 0.854038
0.799688 0.310020 0.855900
0.911096 0.324174 0.858141
0.198459 0.380583 0.851369
0.231984 0.381206 0.851493
0.299125 0.382787 0.851810
0.387463 0.385587 0.852373
0.486398 0.389753 0.853219
0.590757 0.395381 0.854379
0.698102 0.402520 0.855876
0.807218 0.411184 0.857732
0.917448 0.421352 0.859967
0.252641 0.499720 0.854144
0.279010 0.500164 0.854268
0.335600 0.501293 0.854583
0.414917 0.503299 0.855143
0.507427 0.506298 0.855986
0.607337 0.510377 0.857141
0.711544 0.515594 0.858632
0.818378 0.521988 0.860480
0.926899 0.529577 0.862705
0.310281 0.620410 0.857932
0.331411 0.620748 0.858055
0.378984 0.621606 0.858367
0.449275 0.623132 0.858925
0.534598 0.625419 0.859763
0.629178 0.628540 0.860911
0.729463 0.632549 0.862393
0.833369 0.637488 0.864231
0.939661 0.643385 0.866444
0.369863 0.741883 0.862800
0.387165 0.742151 0.862922
0.427413 0.742832 0.863233
0.489379 0.744044 0.863786
0.567349 0.745864 0.864618
0.656069 0.748351 0.865757
0.751833 0.751553 0.867229
0.852259 0.755509 0.869054
0.955842 0.760249 0.871250
0.430607 0.863799 0.868803
0.445066 0.864018 0.868924
0.479458 0.864576 0.869232
0.534090 0.865570 0.869780
0.604970 0.867063 0.870604
0.687631 0.869106 0.871733
0.778486 0.871740 0.873192
0.875000 0.875000 0.875000
0.975466 0.878914 0.877177
0.492089 0.985985 0.875978
0.504387 0.986169 0.876097
0.534099 0.986637 0.876402
0.582424 0.987473 0.876944
0.646724 0.988727 0.877759
0.723395 0.990445 0.878877
0.809152 0.992663 0.880319
0.901457 0.995410 0.882108
0.998481 0.998714 0.884262
0.118962 0.107320 0.969450
0.170151 0.109779 0.969555
0.256219 0.115816 0.969821
0.357239 0.125897 0.970295
0.464050 0.139732 0.971009
0.573475 0.156726 0.971987
0.684250 0.176223 0.973250
0.795797 0.197641 0.974817
0.907821 0.220514 0.976705
0.133591 0.171748 0.969793
0.180610 0.173297 0.969897
0.262981 0.177173 0.970164
0.361835 0.183871 0.970638
0.467389 0.193481 0.971351
0.576034 0.205872 0.972328
0.686291 0.220778 0.973591
0.797475 0.237864 0.975158
0.909232 0.256793 0.977045
0.165069 0.271802 0.970665
0.204669 0.272732 0.970769
0.279345 0.275085 0.971035
0.373224 0.279224 0.971509
0.475758 0.285321 0.972221
0.582484 0.293443 0.973197
0.691450 0.303576 0.974459
0.801723 0.315639 0.976023
0.912811 0.329507 0.977908
0.209308 0.384987 0.972217
0.241170 0.385601 0.972322
0.306028 0.387160 0.972587
0.392546 0.389921 0.973060
0.490241 0.394031 0.973771
0.593765 0.399585 0.974745
0.700530 0.406635 0.976003
0.809228 0.415193 0.977565
0.919147 0.425243 0.979445
0.261003 0.502869 0.974548
0.286487 0.503310 0.974652
0.341635 0.504430 0.974916
0.419594 0.506420 0.975387
0.511072 0.509396 0.976096
0.610240 0.513443 0.977067
0.713912 0.518621 0.978321
0.820352 0.524969 0.979878
0.928576 0.532504 0.981753
0.316898 0.622804 0.977732
0.337536 0.623140 0.977836
0.384204 0.623994 0.978099
0.453516 0.625512 0.978568
0.538012 0.627789 0.979274
0.631953 0.630895 0.980240
0.731756 0.634885 0.981490
0.835297 0.639800 0.983040
0.941307 0.645670 0.984907
0.375238 0.743784 0.981833
0.392253 0.744051 0.981936
0.431922 0.744730 0.982198
0.493193 0.745938 0.982664
0.570515 0.747751 0.983366
0.658699 0.750230 0.984327
0.754038 0.753422 0.985570
0.854131 0.757365 0.987111
0.957452 0.762090 0.988968
0.435076 0.865357 0.986899
0.449357 0.865575 0.987001
0.483370 0.866132 0.987261
0.537508 0.867124 0.987725
0.607888 0.868614 0.988422
0.690107 0.870651 0.989377
0.780593 0.873279 0.990611
0.876808 0.876532 0.992142
0.977033 0.880437 0.993986
0.495877 0.987293 0.992970
0.508060 0.987477 0.993071
0.537517 0.987945 0.993329
0.585487 0.988778 0.993789
0.649403 0.990031 0.994480
0.725713 0.991746 0.995427
0.811156 0.993960 0.996652
0.903196 0.996702 0.998170
1.000000 1.000000 1.000000
