PG39WCDM_HDR_Tonemaped_Gamma_HDR.cube
TITLE "PG39WCDM HDR Tonemaped Gamma - ColorControl LUT - HDR"
DOMAIN_MIN 0.0 0.0 0.0
DOMAIN_MAX 1.0 1.0 1.0
LUT_3D_SIZE 65
# HDR LUT using BT.2020 color space and SMPTE ST 2084 (PQ) encoding
# Max luminance: 1300 cd/m²
# Min luminance: 0.0007 cd/m²
0.005154 0.005154 0.005154
0.015625 0.005154 0.005154
0.031250 0.005154 0.005154
0.046875 0.005154 0.005154
0.062500 0.005154 0.005154
0.078125 0.005154 0.005154
0.093750 0.005154 0.005154
0.109375 0.005154 0.005154
0.125000 0.005154 0.005154
0.140625 0.005154 0.005154
0.156250 0.005154 0.005154
0.171875 0.005154 0.005154
0.187500 0.005154 0.005154
0.203125 0.005154 0.005154
0.218750 0.005154 0.005154
0.234375 0.005154 0.005154
0.250000 0.005154 0.005154
0.265625 0.005154 0.005154
0.281250 0.005154 0.005154
0.296875 0.005154 0.005154
0.312500 0.005154 0.005154
0.328125 0.005154 0.005154
0.343750 0.005154 0.005154
0.359375 0.005154 0.005154
0.375000 0.005154 0.005154
0.390625 0.005154 0.005154
0.406250 0.005154 0.005154
0.421875 0.005154 0.005154
0.437500 0.005154 0.005154
0.453125 0.005154 0.005154
0.468750 0.005154 0.005154
0.484375 0.005154 0.005154
0.500000 0.005154 0.005154
0.515625 0.005154 0.005154
0.531250 0.005154 0.005154
0.546875 0.005154 0.005154
0.562500 0.005154 0.005154
0.578125 0.005154 0.005154
0.593750 0.005154 0.005154
0.609375 0.005154 0.005154
0.625000 0.005154 0.005154
0.640625 0.005154 0.005154
0.656250 0.005154 0.005154
0.671875 0.005154 0.005154
0.687500 0.005154 0.005154
0.703125 0.005154 0.005154
0.718750 0.005154 0.005154
0.734375 0.005154 0.005154
0.750000 0.005154 0.005154
0.765625 0.005154 0.005154
0.781250 0.005154 0.005154
0.796875 0.005154 0.005154
0.812500 0.005154 0.005154
0.828125 0.005154 0.005154
0.843750 0.005154 0.005154
0.859375 0.005154 0.005154
0.875000 0.005154 0.005154
0.890625 0.005154 0.005154
0.906250 0.005154 0.005154
0.921875 0.005154 0.005154
0.937500 0.005154 0.005154
0.953125 0.005154 0.005154
0.968750 0.005154 0.005154
0.984375 0.005154 0.005154
1.000000 0.005154 0.005154
0.005154 0.015625 0.005154
0.015625 0.015625 0.005154
0.031250 0.015625 0.005154
0.046875 0.015625 0.005154
0.062500 0.015625 0.005154
0.078125 0.015625 0.005154
0.093750 0.015625 0.005154
0.109375 0.015625 0.005154
0.125000 0.015625 0.005154
0.140625 0.015625 0.005154
0.156250 0.015625 0.005154
0.171875 0.015625 0.005154
0.187500 0.015625 0.005154
0.203125 0.015625 0.005154
0.218750 0.015625 0.005154
0.234375 0.015625 0.005154
0.250000 0.015625 0.005154
0.265625 0.015625 0.005154
0.281250 0.015625 0.005154
0.296875 0.015625 0.005154
0.312500 0.015625 0.005154
0.328125 0.015625 0.005154
0.343750 0.015625 0.005154
0.359375 0.015625 0.005154
0.375000 0.015625 0.005154
0.390625 0.015625 0.005154
0.406250 0.015625 0.005154
0.421875 0.015625 0.005154
0.437500 0.015625 0.005154
0.453125 0.015625 0.005154
0.468750 0.015625 0.005154
0.484375 0.015625 0.005154
0.500000 0.015625 0.005154
0.515625 0.015625 0.005154
0.531250 0.015625 0.005154
0.546875 0.015625 0.005154
0.562500 0.015625 0.005154
0.578125 0.015625 0.005154
0.593750 0.015625 0.005154
0.609375 0.015625 0.005154
0.625000 0.015625 0.005154
0.640625 0.015625 0.005154
0.656250 0.015625 0.005154
0.671875 0.015625 0.005154
0.687500 0.015625 0.005154
0.703125 0.015625 0.005154
0.718750 0.015625 0.005154
0.734375 0.015625 0.005154
0.750000 0.015625 0.005154
0.765625 0.015625 0.005154
0.781250 0.015625 0.005154
0.796875 0.015625 0.005154
0.812500 0.015625 0.005154
0.828125 0.015625 0.005154
0.843750 0.015625 0.005154
0.859375 0.015625 0.005154
0.875000 0.015625 0.005154
0.890625 0.015625 0.005154
0.906250 0.015625 0.005154
0.921875 0.015625 0.005154
0.937500 0.015625 0.005154
0.953125 0.015625 0.005154
0.968750 0.015625 0.005154
0.984375 0.015625 0.005154
1.000000 0.015625 0.005154
0.005154 0.031250 0.005154
0.015625 0.031250 0.005154
0.031250 0.031250 0.005154
0.046875 0.031250 0.005154
0.062500 0.031250 0.005154
0.078125 0.031250 0.005154
0.093750 0.031250 0.005154
0.109375 0.031250 0.005154
0.125000 0.031250 0.005154
0.140625 0.031250 0.005154
0.156250 0.031250 0.005154
0.171875 0.031250 0.005154
0.187500 0.031250 0.005154
0.203125 0.031250 0.005154
0.218750 0.031250 0.005154
0.234375 0.031250 0.005154
0.250000 0.031250 0.005154
0.265625 0.031250 0.005154
0.281250 0.031250 0.005154
0.296875 0.031250 0.005154
0.312500 0.031250 0.005154
0.328125 0.031250 0.005154
0.343750 0.031250 0.005154
0.359375 0.031250 0.005154
0.375000 0.031250 0.005154
0.390625 0.031250 0.005154
0.406250 0.031250 0.005154
0.421875 0.031250 0.005154
0.437500 0.031250 0.005154
0.453125 0.031250 0.005154
0.468750 0.031250 0.005154
0.484375 0.031250 0.005154
0.500000 0.031250 0.005154
0.515625 0.031250 0.005154
0.531250 0.031250 0.005154
0.546875 0.031250 0.005154
0.562500 0.031250 0.005154
0.578125 0.031250 0.005154
0.593750 0.031250 0.005154
0.609375 0.031250 0.005154
0.625000 0.031250 0.005154
0.640625 0.031250 0.005154
0.656250 0.031250 0.005154
0.671875 0.031250 0.005154
0.687500 0.031250 0.005154
0.703125 0.031250 0.005154
0.718750 0.031250 0.005154
0.734375 0.031250 0.005154
0.750000 0.031250 0.005154
0.765625 0.031250 0.005154
0.781250 0.031250 0.005154
0.796875 0.031250 0.005154
0.812500 0.031250 0.005154
0.828125 0.031250 0.005154
0.843750 0.031250 0.005154
0.859375 0.031250 0.005154
0.875000 0.031250 0.005154
0.890625 0.031250 0.005154
0.906250 0.031250 0.005154
0.921875 0.031250 0.005154
0.937500 0.031250 0.005154
0.953125 0.031250 0.005154
0.968750 0.031250 0.005154
0.984375 0.031250 0.005154
1.000000 0.031250 0.005154
0.005154 0.046875 0.005154
0.015625 0.046875 0.005154
0.031250 0.046875 0.005154
0.046875 0.046875 0.005154
0.062500 0.046875 0.005154
0.078125 0.046875 0.005154
0.093750 0.046875 0.005154
0.109375 0.046875 0.005154
0.125000 0.046875 0.005154
0.140625 0.046875 0.005154
0.156250 0.046875 0.005154
0.171875 0.046875 0.005154
0.187500 0.046875 0.005154
0.203125 0.046875 0.005154
0.218750 0.046875 0.005154
0.234375 0.046875 0.005154
0.250000 0.046875 0.005154
0.265625 0.046875 0.005154
0.281250 0.046875 0.005154
0.296875 0.046875 0.005154
0.312500 0.046875 0.005154
0.328125 0.046875 0.005154
0.343750 0.046875 0.005154
0.359375 0.046875 0.005154
0.375000 0.046875 0.005154
0.390625 0.046875 0.005154
0.406250 0.046875 0.005154
0.421875 0.046875 0.005154
0.437500 0.046875 0.005154
0.453125 0.046875 0.005154
0.468750 0.046875 0.005154
0.484375 0.046875 0.005154
0.500000 0.046875 0.005154
0.515625 0.046875 0.005154
0.531250 0.046875 0.005154
0.546875 0.046875 0.005154
0.562500 0.046875 0.005154
0.578125 0.046875 0.005154
0.593750 0.046875 0.005154
0.609375 0.046875 0.005154
0.625000 0.046875 0.005154
0.640625 0.046875 0.005154
0.656250 0.046875 0.005154
0.671875 0.046875 0.005154
0.687500 0.046875 0.005154
0.703125 0.046875 0.005154
0.718750 0.046875 0.005154
0.734375 0.046875 0.005154
0.750000 0.046875 0.005154
0.765625 0.046875 0.005154
0.781250 0.046875 0.005154
0.796875 0.046875 0.005154
0.812500 0.046875 0.005154
0.828125 0.046875 0.005154
0.843750 0.046875 0.005154
0.859375 0.046875 0.005154
0.875000 0.046875 0.005154
0.890625 0.046875 0.005154
0.906250 0.046875 0.005154
0.921875 0.046875 0.005154
0.937500 0.046875 0.005154
0.953125 0.046875 0.005154
0.968750 0.046875 0.005154
0.984375 0.046875 0.005154
1.000000 0.046875 0.005154
0.005154 0.062500 0.005154
0.015625 0.062500 0.005154
0.031250 0.062500 0.005154
0.046875 0.062500 0.005154
0.062500 0.062500 0.005154
0.078125 0.062500 0.005154
0.093750 0.062500 0.005154
0.109375 0.062500 0.005154
0.125000 0.062500 0.005154
0.140625 0.062500 0.005154
0.156250 0.062500 0.005154
0.171875 0.062500 0.005154
0.187500 0.062500 0.005154
0.203125 0.062500 0.005154
0.218750 0.062500 0.005154
0.234375 0.062500 0.005154
0.250000 0.062500 0.005154
0.265625 0.062500 0.005154
0.281250 0.062500 0.005154
0.296875 0.062500 0.005154
0.312500 0.062500 0.005154
0.328125 0.062500 0.005154
0.343750 0.062500 0.005154
0.359375 0.062500 0.005154
0.375000 0.062500 0.005154
0.390625 0.062500 0.005154
0.406250 0.062500 0.005154
0.421875 0.062500 0.005154
0.437500 0.062500 0.005154
0.453125 0.062500 0.005154
0.468750 0.062500 0.005154
0.484375 0.062500 0.005154
0.500000 0.062500 0.005154
0.515625 0.062500 0.005154
0.531250 0.062500 0.005154
0.546875 0.062500 0.005154
0.562500 0.062500 0.005154
0.578125 0.062500 0.005154
0.593750 0.062500 0.005154
0.609375 0.062500 0.005154
0.625000 0.062500 0.005154
0.640625 0.062500 0.005154
0.656250 0.062500 0.005154
0.671875 0.062500 0.005154
0.687500 0.062500 0.005154
0.703125 0.062500 0.005154
0.718750 0.062500 0.005154
0.734375 0.062500 0.005154
0.750000 0.062500 0.005154
0.765625 0.062500 0.005154
0.781250 0.062500 0.005154
0.796875 0.062500 0.005154
0.812500 0.062500 0.005154
0.828125 0.062500 0.005154
0.843750 0.062500 0.005154
0.859375 0.062500 0.005154
0.875000 0.062500 0.005154
0.890625 0.062500 0.005154
0.906250 0.062500 0.005154
0.921875 0.062500 0.005154
0.937500 0.062500 0.005154
0.953125 0.062500 0.005154
0.968750 0.062500 0.005154
0.984375 0.062500 0.005154
1.000000 0.062500 0.005154
0.005154 0.078125 0.005154
0.015625 0.078125 0.005154
0.031250 0.078125 0.005154
0.046875 0.078125 0.005154
0.062500 0.078125 0.005154
0.078125 0.078125 0.005154
0.093750 0.078125 0.005154
0.109375 0.078125 0.005154
0.125000 0.078125 0.005154
0.140625 0.078125 0.005154
0.156250 0.078125 0.005154
0.171875 0.078125 0.005154
0.187500 0.078125 0.005154
0.203125 0.078125 0.005154
0.218750 0.078125 0.005154
0.234375 0.078125 0.005154
0.250000 0.078125 0.005154
0.265625 0.078125 0.005154
0.281250 0.078125 0.005154
0.296875 0.078125 0.005154
0.312500 0.078125 0.005154
0.328125 0.078125 0.005154
0.343750 0.078125 0.005154
0.359375 0.078125 0.005154
0.375000 0.078125 0.005154
0.390625 0.078125 0.005154
0.406250 0.078125 0.005154
0.421875 0.078125 0.005154
0.437500 0.078125 0.005154
0.453125 0.078125 0.005154
0.468750 0.078125 0.005154
0.484375 0.078125 0.005154
0.500000 0.078125 0.005154
0.515625 0.078125 0.005154
0.531250 0.078125 0.005154
0.546875 0.078125 0.005154
0.562500 0.078125 0.005154
0.578125 0.078125 0.005154
0.593750 0.078125 0.005154
0.609375 0.078125 0.005154
0.625000 0.078125 0.005154
0.640625 0.078125 0.005154
0.656250 0.078125 0.005154
0.671875 0.078125 0.005154
0.687500 0.078125 0.005154
0.703125 0.078125 0.005154
0.718750 0.078125 0.005154
0.734375 0.078125 0.005154
0.750000 0.078125 0.005154
0.765625 0.078125 0.005154
0.781250 0.078125 0.005154
0.796875 0.078125 0.005154
0.812500 0.078125 0.005154
0.828125 0.078125 0.005154
0.843750 0.078125 0.005154
0.859375 0.078125 0.005154
0.875000 0.078125 0.005154
0.890625 0.078125 0.005154
0.906250 0.078125 0.005154
0.921875 0.078125 0.005154
0.937500 0.078125 0.005154
0.953125 0.078125 0.005154
0.968750 0.078125 0.005154
0.984375 0.078125 0.005154
1.000000 0.078125 0.005154
0.005154 0.093750 0.005154
0.015625 0.093750 0.005154
0.031250 0.093750 0.005154
0.046875 0.093750 0.005154
0.062500 0.093750 0.005154
0.078125 0.093750 0.005154
0.093750 0.093750 0.005154
0.109375 0.093750 0.005154
0.125000 0.093750 0.005154
0.140625 0.093750 0.005154
0.156250 0.093750 0.005154
0.171875 0.093750 0.005154
0.187500 0.093750 0.005154
0.203125 0.093750 0.005154
0.218750 0.093750 0.005154
0.234375 0.093750 0.005154
0.250000 0.093750 0.005154
0.265625 0.093750 0.005154
0.281250 0.093750 0.005154
0.296875 0.093750 0.005154
0.312500 0.093750 0.005154
0.328125 0.093750 0.005154
0.343750 0.093750 0.005154
0.359375 0.093750 0.005154
0.375000 0.093750 0.005154
0.390625 0.093750 0.005154
0.406250 0.093750 0.005154
0.421875 0.093750 0.005154
0.437500 0.093750 0.005154
0.453125 0.093750 0.005154
0.468750 0.093750 0.005154
0.484375 0.093750 0.005154
0.500000 0.093750 0.005154
0.515625 0.093750 0.005154
0.531250 0.093750 0.005154
0.546875 0.093750 0.005154
0.562500 0.093750 0.005154
0.578125 0.093750 0.005154
0.593750 0.093750 0.005154
0.609375 0.093750 0.005154
0.625000 0.093750 0.005154
0.640625 0.093750 0.005154
0.656250 0.093750 0.005154
0.671875 0.093750 0.005154
0.687500 0.093750 0.005154
0.703125 0.093750 0.005154
0.718750 0.093750 0.005154
0.734375 0.093750 0.005154
0.750000 0.093750 0.005154
0.765625 0.093750 0.005154
0.781250 0.093750 0.005154
0.796875 0.093750 0.005154
0.812500 0.093750 0.005154
0.828125 0.093750 0.005154
0.843750 0.093750 0.005154
0.859375 0.093750 0.005154
0.875000 0.093750 0.005154
0.890625 0.093750 0.005154
0.906250 0.093750 0.005154
0.921875 0.093750 0.005154
0.937500 0.093750 0.005154
0.953125 0.093750 0.005154
0.968750 0.093750 0.005154
0.984375 0.093750 0.005154
1.000000 0.093750 0.005154
0.005154 0.109375 0.005154
0.015625 0.109375 0.005154
0.031250 0.109375 0.005154
0.046875 0.109375 0.005154
0.062500 0.109375 0.005154
0.078125 0.109375 0.005154
0.093750 0.109375 0.005154
0.109375 0.109375 0.005154
0.125000 0.109375 0.005154
0.140625 0.109375 0.005154
0.156250 0.109375 0.005154
0.171875 0.109375 0.005154
0.187500 0.109375 0.005154
0.203125 0.109375 0.005154
0.218750 0.109375 0.005154
0.234375 0.109375 0.005154
0.250000 0.109375 0.005154
0.265625 0.109375 0.005154
0.281250 0.109375 0.005154
0.296875 0.109375 0.005154
0.312500 0.109375 0.005154
0.328125 0.109375 0.005154
0.343750 0.109375 0.005154
0.359375 0.109375 0.005154
0.375000 0.109375 0.005154
0.390625 0.109375 0.005154
0.406250 0.109375 0.005154
0.421875 0.109375 0.005154
0.437500 0.109375 0.005154
0.453125 0.109375 0.005154
0.468750 0.109375 0.005154
0.484375 0.109375 0.005154
0.500000 0.109375 0.005154
0.515625 0.109375 0.005154
0.531250 0.109375 0.005154
0.546875 0.109375 0.005154
0.562500 0.109375 0.005154
0.578125 0.109375 0.005154
0.593750 0.109375 0.005154
0.609375 0.109375 0.005154
0.625000 0.109375 0.005154
0.640625 0.109375 0.005154
0.656250 0.109375 0.005154
0.671875 0.109375 0.005154
0.687500 0.109375 0.005154
0.703125 0.109375 0.005154
0.718750 0.109375 0.005154
0.734375 0.109375 0.005154
0.750000 0.109375 0.005154
0.765625 0.109375 0.005154
0.781250 0.109375 0.005154
0.796875 0.109375 0.005154
0.812500 0.109375 0.005154
0.828125 0.109375 0.005154
0.843750 0.109375 0.005154
0.859375 0.109375 0.005154
0.875000 0.109375 0.005154
0.890625 0.109375 0.005154
0.906250 0.109375 0.005154
0.921875 0.109375 0.005154
0.937500 0.109375 0.005154
0.953125 0.109375 0.005154
0.968750 0.109375 0.005154
0.984375 0.109375 0.005154
1.000000 0.109375 0.005154
0.005154 0.125000 0.005154
0.015625 0.125000 0.005154
0.031250 0.125000 0.005154
0.046875 0.125000 0.005154
0.062500 0.125000 0.005154
0.078125 0.125000 0.005154
0.093750 0.125000 0.005154
0.109375 0.125000 0.005154
0.125000 0.125000 0.005154
0.140625 0.125000 0.005154
0.156250 0.125000 0.005154
0.171875 0.125000 0.005154
0.187500 0.125000 0.005154
0.203125 0.125000 0.005154
0.218750 0.125000 0.005154
0.234375 0.125000 0.005154
0.250000 0.125000 0.005154
0.265625 0.125000 0.005154
0.281250 0.125000 0.005154
0.296875 0.125000 0.005154
0.312500 0.125000 0.005154
0.328125 0.125000 0.005154
0.343750 0.125000 0.005154
0.359375 0.125000 0.005154
0.375000 0.125000 0.005154
0.390625 0.125000 0.005154
0.406250 0.125000 0.005154
0.421875 0.125000 0.005154
0.437500 0.125000 0.005154
0.453125 0.125000 0.005154
0.468750 0.125000 0.005154
0.484375 0.125000 0.005154
0.500000 0.125000 0.005154
0.515625 0.125000 0.005154
0.531250 0.125000 0.005154
0.546875 0.125000 0.005154
0.562500 0.125000 0.005154
0.578125 0.125000 0.005154
0.593750 0.125000 0.005154
0.609375 0.125000 0.005154
0.625000 0.125000 0.005154
0.640625 0.125000 0.005154
0.656250 0.125000 0.005154
0.671875 0.125000 0.005154
0.687500 0.125000 0.005154
0.703125 0.125000 0.005154
0.718750 0.125000 0.005154
0.734375 0.125000 0.005154
0.750000 0.125000 0.005154
0.765625 0.125000 0.005154
0.781250 0.125000 0.005154
0.796875 0.125000 0.005154
0.812500 0.125000 0.005154
0.828125 0.125000 0.005154
0.843750 0.125000 0.005154
0.859375 0.125000 0.005154
0.875000 0.125000 0.005154
0.890625 0.125000 0.005154
0.906250 0.125000 0.005154
0.921875 0.125000 0.005154
0.937500 0.125000 0.005154
0.953125 0.125000 0.005154
0.968750 0.125000 0.005154
0.984375 0.125000 0.005154
1.000000 0.125000 0.005154
0.005154 0.140625 0.005154
0.015625 0.140625 0.005154
0.031250 0.140625 0.005154
0.046875 0.140625 0.005154
0.062500 0.140625 0.005154
0.078125 0.140625 0.005154
0.093750 0.140625 0.005154
0.109375 0.140625 0.005154
0.125000 0.140625 0.005154
0.140625 0.140625 0.005154
0.156250 0.140625 0.005154
0.171875 0.140625 0.005154
0.187500 0.140625 0.005154
0.203125 0.140625 0.005154
0.218750 0.140625 0.005154
0.234375 0.140625 0.005154
0.250000 0.140625 0.005154
0.265625 0.140625 0.005154
0.281250 0.140625 0.005154
0.296875 0.140625 0.005154
0.312500 0.140625 0.005154
0.328125 0.140625 0.005154
0.343750 0.140625 0.005154
0.359375 0.140625 0.005154
0.375000 0.140625 0.005154
0.390625 0.140625 0.005154
0.406250 0.140625 0.005154
0.421875 0.140625 0.005154
0.437500 0.140625 0.005154
0.453125 0.140625 0.005154
0.468750 0.140625 0.005154
0.484375 0.140625 0.005154
0.500000 0.140625 0.005154
0.515625 0.140625 0.005154
0.531250 0.140625 0.005154
0.546875 0.140625 0.005154
0.562500 0.140625 0.005154
0.578125 0.140625 0.005154
0.593750 0.140625 0.005154
0.609375 0.140625 0.005154
0.625000 0.140625 0.005154
0.640625 0.140625 0.005154
0.656250 0.140625 0.005154
0.671875 0.140625 0.005154
0.687500 0.140625 0.005154
0.703125 0.140625 0.005154
0.718750 0.140625 0.005154
0.734375 0.140625 0.005154
0.750000 0.140625 0.005154
0.765625 0.140625 0.005154
0.781250 0.140625 0.005154
0.796875 0.140625 0.005154
0.812500 0.140625 0.005154
0.828125 0.140625 0.005154
0.843750 0.140625 0.005154
0.859375 0.140625 0.005154
0.875000 0.140625 0.005154
0.890625 0.140625 0.005154
0.906250 0.140625 0.005154
0.921875 0.140625 0.005154
0.937500 0.140625 0.005154
0.953125 0.140625 0.005154
0.968750 0.140625 0.005154
0.984375 0.140625 0.005154
1.000000 0.140625 0.005154
0.005154 0.156250 0.005154
0.015625 0.156250 0.005154
0.031250 0.156250 0.005154
0.046875 0.156250 0.005154
0.062500 0.156250 0.005154
0.078125 0.156250 0.005154
0.093750 0.156250 0.005154
0.109375 0.156250 0.005154
0.125000 0.156250 0.005154
0.140625 0.156250 0.005154
0.156250 0.156250 0.005154
0.171875 0.156250 0.005154
0.187500 0.156250 0.005154
0.203125 0.156250 0.005154
0.218750 0.156250 0.005154
0.234375 0.156250 0.005154
0.250000 0.156250 0.005154
0.265625 0.156250 0.005154
0.281250 0.156250 0.005154
0.296875 0.156250 0.005154
0.312500 0.156250 0.005154
0.328125 0.156250 0.005154
0.343750 0.156250 0.005154
0.359375 0.156250 0.005154
0.375000 0.156250 0.005154
0.390625 0.156250 0.005154
0.406250 0.156250 0.005154
0.421875 0.156250 0.005154
0.437500 0.156250 0.005154
0.453125 0.156250 0.005154
0.468750 0.156250 0.005154
0.484375 0.156250 0.005154
0.500000 0.156250 0.005154
0.515625 0.156250 0.005154
0.531250 0.156250 0.005154
0.546875 0.156250 0.005154
0.562500 0.156250 0.005154
0.578125 0.156250 0.005154
0.593750 0.156250 0.005154
0.609375 0.156250 0.005154
0.625000 0.156250 0.005154
0.640625 0.156250 0.005154
0.656250 0.156250 0.005154
0.671875 0.156250 0.005154
0.687500 0.156250 0.005154
0.703125 0.156250 0.005154
0.718750 0.156250 0.005154
0.734375 0.156250 0.005154
0.750000 0.156250 0.005154
0.765625 0.156250 0.005154
0.781250 0.156250 0.005154
0.796875 0.156250 0.005154
0.812500 0.156250 0.005154
0.828125 0.156250 0.005154
0.843750 0.156250 0.005154
0.859375 0.156250 0.005154
0.875000 0.156250 0.005154
0.890625 0.156250 0.005154
0.906250 0.156250 0.005154
0.921875 0.156250 0.005154
0.937500 0.156250 0.005154
0.953125 0.156250 0.005154
0.968750 0.156250 0.005154
0.984375 0.156250 0.005154
1.000000 0.156250 0.005154
0.005154 0.171875 0.005154
0.015625 0.171875 0.005154
0.031250 0.171875 0.005154
0.046875 0.171875 0.005154
0.062500 0.171875 0.005154
0.078125 0.171875 0.005154
0.093750 0.171875 0.005154
0.109375 0.171875 0.005154
0.125000 0.171875 0.005154
0.140625 0.171875 0.005154
0.156250 0.171875 0.005154
0.171875 0.171875 0.005154
0.187500 0.171875 0.005154
0.203125 0.171875 0.005154
0.218750 0.171875 0.005154
0.234375 0.171875 0.005154
0.250000 0.171875 0.005154
0.265625 0.171875 0.005154
0.281250 0.171875 0.005154
0.296875 0.171875 0.005154
0.312500 0.171875 0.005154
0.328125 0.171875 0.005154
0.343750 0.171875 0.005154
0.359375 0.171875 0.005154
0.375000 0.171875 0.005154
0.390625 0.171875 0.005154
0.406250 0.171875 0.005154
0.421875 0.171875 0.005154
0.437500 0.171875 0.005154
0.453125 0.171875 0.005154
0.468750 0.171875 0.005154
0.484375 0.171875 0.005154
0.500000 0.171875 0.005154
0.515625 0.171875 0.005154
0.531250 0.171875 0.005154
0.546875 0.171875 0.005154
0.562500 0.171875 0.005154
0.578125 0.171875 0.005154
0.593750 0.171875 0.005154
0.609375 0.171875 0.005154
0.625000 0.171875 0.005154
0.640625 0.171875 0.005154
0.656250 0.171875 0.005154
0.671875 0.171875 0.005154
0.687500 0.171875 0.005154
0.703125 0.171875 0.005154
0.718750 0.171875 0.005154
0.734375 0.171875 0.005154
0.750000 0.171875 0.005154
0.765625 0.171875 0.005154
0.781250 0.171875 0.005154
0.796875 0.171875 0.005154
0.812500 0.171875 0.005154
0.828125 0.171875 0.005154
0.843750 0.171875 0.005154
0.859375 0.171875 0.005154
0.875000 0.171875 0.005154
0.890625 0.171875 0.005154
0.906250 0.171875 0.005154
0.921875 0.171875 0.005154
0.937500 0.171875 0.005154
0.953125 0.171875 0.005154
0.968750 0.171875 0.005154
0.984375 0.171875 0.005154
1.000000 0.171875 0.005154
0.005154 0.187500 0.005154
0.015625 0.187500 0.005154
0.031250 0.187500 0.005154
0.046875 0.187500 0.005154
0.062500 0.187500 0.005154
0.078125 0.187500 0.005154
0.093750 0.187500 0.005154
0.109375 0.187500 0.005154
0.125000 0.187500 0.005154
0.140625 0.187500 0.005154
0.156250 0.187500 0.005154
0.171875 0.187500 0.005154
0.187500 0.187500 0.005154
0.203125 0.187500 0.005154
0.218750 0.187500 0.005154
0.234375 0.187500 0.005154
0.250000 0.187500 0.005154
0.265625 0.187500 0.005154
0.281250 0.187500 0.005154
0.296875 0.187500 0.005154
0.312500 0.187500 0.005154
0.328125 0.187500 0.005154
0.343750 0.187500 0.005154
0.359375 0.187500 0.005154
0.375000 0.187500 0.005154
0.390625 0.187500 0.005154
0.406250 0.187500 0.005154
0.421875 0.187500 0.005154
0.437500 0.187500 0.005154
0.453125 0.187500 0.005154
0.468750 0.187500 0.005154
0.484375 0.187500 0.005154
0.500000 0.187500 0.005154
0.515625 0.187500 0.005154
0.531250 0.187500 0.005154
0.546875 0.187500 0.005154
0.562500 0.187500 0.005154
0.578125 0.187500 0.005154
0.593750 0.187500 0.005154
0.609375 0.187500 0.005154
0.625000 0.187500 0.005154
0.640625 0.187500 0.005154
0.656250 0.187500 0.005154
0.671875 0.187500 0.005154
0.687500 0.187500 0.005154
0.703125 0.187500 0.005154
0.718750 0.187500 0.005154
0.734375 0.187500 0.005154
0.750000 0.187500 0.005154
0.765625 0.187500 0.005154
0.781250 0.187500 0.005154
0.796875 0.187500 0.005154
0.812500 0.187500 0.005154
0.828125 0.187500 0.005154
0.843750 0.187500 0.005154
0.859375 0.187500 0.005154
0.875000 0.187500 0.005154
0.890625 0.187500 0.005154
0.906250 0.187500 0.005154
0.921875 0.187500 0.005154
0.937500 0.187500 0.005154
0.953125 0.187500 0.005154
0.968750 0.187500 0.005154
0.984375 0.187500 0.005154
1.000000 0.187500 0.005154
0.005154 0.203125 0.005154
0.015625 0.203125 0.005154
0.031250 0.203125 0.005154
0.046875 0.203125 0.005154
0.062500 0.203125 0.005154
0.078125 0.203125 0.005154
0.093750 0.203125 0.005154
0.109375 0.203125 0.005154
0.125000 0.203125 0.005154
0.140625 0.203125 0.005154
0.156250 0.203125 0.005154
0.171875 0.203125 0.005154
0.187500 0.203125 0.005154
0.203125 0.203125 0.005154
0.218750 0.203125 0.005154
0.234375 0.203125 0.005154
0.250000 0.203125 0.005154
0.265625 0.203125 0.005154
0.281250 0.203125 0.005154
0.296875 0.203125 0.005154
0.312500 0.203125 0.005154
0.328125 0.203125 0.005154
0.343750 0.203125 0.005154
0.359375 0.203125 0.005154
0.375000 0.203125 0.005154
0.390625 0.203125 0.005154
0.406250 0.203125 0.005154
0.421875 0.203125 0.005154
0.437500 0.203125 0.005154
0.453125 0.203125 0.005154
0.468750 0.203125 0.005154
0.484375 0.203125 0.005154
0.500000 0.203125 0.005154
0.515625 0.203125 0.005154
