PG39WCDM_HDR_Correction_SDR.cube
TITLE "PG39WCDM HDR Correction - ColorControl LUT - SDR"
DOMAIN_MIN 0.0 0.0 0.0
DOMAIN_MAX 1.0 1.0 1.0
LUT_3D_SIZE 65
# SDR LUT using sRGB/Rec.709 color space with gamma encoding
# Max luminance: 100 cd/m²
# Min luminance: 0 cd/m²
# Companion SDR LUT for standard dynamic range workflows
0.000000 0.000000 0.000000
0.012340 0.000448 0.000249
0.024680 0.000896 0.000497
0.037352 0.001356 0.000753
0.051494 0.001909 0.001060
0.065656 0.002576 0.001431
0.079817 0.003363 0.001867
0.093979 0.004274 0.002373
0.108140 0.005314 0.002951
0.122302 0.006489 0.003604
0.136463 0.007804 0.004334
0.150625 0.009261 0.005143
0.164786 0.010867 0.006035
0.178948 0.012623 0.007010
0.193109 0.014536 0.008072
0.207271 0.016607 0.009222
0.221432 0.018841 0.010463
0.235594 0.021241 0.011796
0.249755 0.023811 0.013223
0.263917 0.026553 0.014746
0.278078 0.029471 0.016367
0.292239 0.032569 0.018087
0.306401 0.035848 0.019908
0.320562 0.039312 0.021832
0.334724 0.042879 0.023860
0.348885 0.046435 0.025994
0.363047 0.049992 0.028235
0.377208 0.053549 0.030585
0.391370 0.057105 0.033046
0.405531 0.060662 0.035618
0.419693 0.064219 0.038303
0.433854 0.067775 0.041089
0.448016 0.071332 0.043873
0.462177 0.074888 0.046657
0.476339 0.078445 0.049440
0.490500 0.082002 0.052224
0.504662 0.085558 0.055007
0.518823 0.089115 0.057791
0.532985 0.092672 0.060575
0.547146 0.096228 0.063358
0.561308 0.099785 0.066142
0.575469 0.103342 0.068925
0.589631 0.106898 0.071709
0.603792 0.110455 0.074493
0.617954 0.114011 0.077276
0.632115 0.117568 0.080060
0.646276 0.121125 0.082843
0.660438 0.124681 0.085627
0.674599 0.128238 0.088410
0.688761 0.131795 0.091194
0.702922 0.135351 0.093978
0.717084 0.138908 0.096761
0.731245 0.142465 0.099545
0.745407 0.146021 0.102328
0.759568 0.149578 0.105112
0.773730 0.153134 0.107896
0.787891 0.156691 0.110679
0.802053 0.160248 0.113463
0.816214 0.163804 0.116246
0.830376 0.167361 0.119030
0.844537 0.170918 0.121814
0.858699 0.174474 0.124597
0.872860 0.178031 0.127381
0.887022 0.181588 0.130164
0.901183 0.185144 0.132948
0.003078 0.015002 0.000815
0.015418 0.015450 0.001064
0.027758 0.015898 0.001313
0.040430 0.016358 0.001568
0.054048 0.016911 0.001876
0.067809 0.017579 0.002246
0.081666 0.018365 0.002683
0.095589 0.019276 0.003189
0.109561 0.020316 0.003766
0.123567 0.021492 0.004419
0.137601 0.022806 0.005149
0.151655 0.024263 0.005958
0.165725 0.025869 0.006850
0.179808 0.027626 0.007825
0.193902 0.029538 0.008887
0.208004 0.031609 0.010038
0.222114 0.033843 0.011278
0.236229 0.036243 0.012611
0.250350 0.038813 0.014038
0.264475 0.041528 0.015561
0.278604 0.044297 0.017182
0.292735 0.047122 0.018902
0.306870 0.049998 0.020723
0.321007 0.052921 0.022647
0.335146 0.055888 0.024675
0.349287 0.058893 0.026809
0.363429 0.061935 0.029050
0.377573 0.065010 0.031400
0.391719 0.068115 0.033861
0.405865 0.071248 0.036433
0.420013 0.074407 0.039119
0.434162 0.077589 0.041879
0.448311 0.080793 0.044632
0.462461 0.084018 0.047387
0.476612 0.087261 0.050144
0.490764 0.090521 0.052902
0.504916 0.093798 0.055662
0.519069 0.097089 0.058423
0.533222 0.100394 0.061186
0.547376 0.103712 0.063949
0.561530 0.107042 0.066714
0.575684 0.110383 0.069480
0.589839 0.113735 0.072246
0.603994 0.117096 0.075014
0.618150 0.120466 0.077782
0.632306 0.123845 0.080551
0.646462 0.127232 0.083321
0.660618 0.130627 0.086092
0.674775 0.134029 0.088863
0.688932 0.137437 0.091634
0.703089 0.140851 0.094407
0.717246 0.144272 0.097179
0.731403 0.147698 0.099952
0.745561 0.151129 0.102726
0.759719 0.154566 0.105500
0.773877 0.158007 0.108274
0.788035 0.161452 0.111049
0.802193 0.164902 0.113824
0.816351 0.168355 0.116599
0.830510 0.171813 0.119375
0.844668 0.175274 0.122151
0.858827 0.178738 0.124928
0.872986 0.182206 0.127704
0.887144 0.185677 0.130481
0.901303 0.189151 0.133258
0.006157 0.030004 0.001631
0.018497 0.030452 0.001879
0.030837 0.030900 0.002128
0.043394 0.031360 0.002383
0.056521 0.031914 0.002691
0.069911 0.032581 0.003061
0.083480 0.033367 0.003498
0.097176 0.034278 0.004004
0.110964 0.035319 0.004582
0.124821 0.036494 0.005234
0.138729 0.037808 0.005964
0.152678 0.039266 0.006774
0.166658 0.040863 0.007665
0.180664 0.042558 0.008641
0.194691 0.044359 0.009703
0.208735 0.046258 0.010853
0.222793 0.048253 0.012094
0.236863 0.050337 0.013427
0.250944 0.052507 0.014854
0.265032 0.054757 0.016376
0.279128 0.057082 0.017997
0.293230 0.059478 0.019717
0.307338 0.061940 0.021538
0.321450 0.064465 0.023462
0.335567 0.067049 0.025490
0.349688 0.069687 0.027624
0.363811 0.072376 0.029866
0.377938 0.075113 0.032216
0.392068 0.077894 0.034676
0.406199 0.080718 0.037249
0.420333 0.083580 0.039934
0.434469 0.086479 0.042660
0.448606 0.089412 0.045383
0.462745 0.092377 0.048110
0.476886 0.095371 0.050840
0.491027 0.098394 0.053574
0.505170 0.101443 0.056311
0.519314 0.104517 0.059050
0.533459 0.107613 0.061792
0.547605 0.110732 0.064536
0.561752 0.113870 0.067283
0.575900 0.117028 0.070031
0.590048 0.120204 0.072781
0.604197 0.123396 0.075533
0.618347 0.126605 0.078286
0.632497 0.129828 0.081041
0.646647 0.133066 0.083797
0.660799 0.136317 0.086554
0.674950 0.139581 0.089313
0.689103 0.142857 0.092073
0.703255 0.146144 0.094834
0.717408 0.149441 0.097596
0.731561 0.152749 0.100358
0.745715 0.156066 0.103122
0.759869 0.159393 0.105886
0.774023 0.162728 0.108652
0.788178 0.166071 0.111418
0.802333 0.169422 0.114184
0.816488 0.172780 0.116952
0.830643 0.176146 0.119720
0.844799 0.179518 0.122488
0.858955 0.182896 0.125257
0.873111 0.186281 0.128027
0.887267 0.189671 0.130797
0.901424 0.193067 0.133567
0.009318 0.045163 0.002468
0.021658 0.045573 0.002716
0.033998 0.045981 0.002965
0.046312 0.046398 0.003221
0.058982 0.046897 0.003528
0.072019 0.047493 0.003898
0.085310 0.048189 0.004335
0.098782 0.048988 0.004841
0.112388 0.049890 0.005419
0.126095 0.050896 0.006071
0.139878 0.052005 0.006801
0.153721 0.053216 0.007611
0.167611 0.054529 0.008502
0.181539 0.055941 0.009478
0.195498 0.057450 0.010540
0.209483 0.059053 0.011690
0.223489 0.060747 0.012931
0.237513 0.062529 0.014264
0.251551 0.064397 0.015691
0.265603 0.066345 0.017214
0.279665 0.068372 0.018834
0.293737 0.070473 0.020554
0.307818 0.072645 0.022375
0.321905 0.074885 0.024299
0.335999 0.077189 0.026327
0.350099 0.079554 0.028461
0.364203 0.081978 0.030703
0.378312 0.084456 0.033053
0.392425 0.086985 0.035513
0.406542 0.089564 0.038086
0.420661 0.092190 0.040765
0.434784 0.094859 0.043452
0.448909 0.097570 0.046146
0.463036 0.100320 0.048845
0.477166 0.103107 0.051549
0.491298 0.105930 0.054258
0.505431 0.108785 0.056972
0.519566 0.111671 0.059689
0.533703 0.114587 0.062410
0.547841 0.117531 0.065135
0.561980 0.120502 0.067862
0.576120 0.123497 0.070593
0.590262 0.126516 0.073326
0.604405 0.129557 0.076062
0.618548 0.132620 0.078800
0.632693 0.135703 0.081541
0.646838 0.138804 0.084283
0.660984 0.141924 0.087027
0.675130 0.145061 0.089774
0.689278 0.148214 0.092521
0.703426 0.151382 0.095271
0.717575 0.154566 0.098022
0.731724 0.157763 0.100774
0.745873 0.160973 0.103527
0.760024 0.164196 0.106282
0.774174 0.167431 0.109038
0.788325 0.170677 0.111795
0.802477 0.173935 0.114553
0.816629 0.177202 0.117312
0.830781 0.180480 0.120072
0.844933 0.183767 0.122833
0.859086 0.187063 0.125595
0.873240 0.190368 0.128357
0.887393 0.193680 0.131120
0.901547 0.197001 0.133884
0.013124 0.060525 0.003476
0.025464 0.060862 0.003724
0.037804 0.061197 0.003973
0.049675 0.061539 0.004228
0.061850 0.061950 0.004536
0.074493 0.062442 0.004906
0.087468 0.063018 0.005343
0.100685 0.063681 0.005849
0.114081 0.064432 0.006427
0.127612 0.065272 0.007079
0.141249 0.066202 0.007809
0.154967 0.067222 0.008619
0.168750 0.068331 0.009510
0.182586 0.069530 0.010486
0.196465 0.070816 0.011548
0.210379 0.072189 0.012698
0.224323 0.073647 0.013939
0.238291 0.075188 0.015272
0.252281 0.076810 0.016699
0.266288 0.078510 0.018221
0.280311 0.080287 0.019842
0.294347 0.082139 0.021562
0.308394 0.084061 0.023383
0.322452 0.086052 0.025307
0.336518 0.088109 0.027335
0.350593 0.090230 0.029469
0.364674 0.092412 0.031711
0.378762 0.094653 0.034061
0.392855 0.096949 0.036521
0.406953 0.099299 0.039094
0.421056 0.101700 0.041744
0.435163 0.104149 0.044395
0.449273 0.106646 0.047054
0.463387 0.109186 0.049720
0.477503 0.111769 0.052394
0.491623 0.114392 0.055074
0.505745 0.117053 0.057760
0.519869 0.119751 0.060452
0.533996 0.122483 0.063149
0.548124 0.125249 0.065850
0.562254 0.128046 0.068556
0.576386 0.130873 0.071265
0.590520 0.133729 0.073979
0.604655 0.136612 0.076696
0.618791 0.139521 0.079416
0.632928 0.142454 0.082139
0.647067 0.145411 0.084865
0.661207 0.148390 0.087594
0.675347 0.151391 0.090325
0.689489 0.154412 0.093059
0.703631 0.157452 0.095794
0.717775 0.160511 0.098532
0.731919 0.163587 0.101272
0.746064 0.166680 0.104013
0.760209 0.169790 0.106757
0.774356 0.172914 0.109501
0.788502 0.176054 0.112248
0.802650 0.179207 0.114996
0.816798 0.182374 0.117745
0.830946 0.185554 0.120495
0.845095 0.188745 0.123247
0.859245 0.191949 0.126000
0.873394 0.195164 0.128754
0.887545 0.198390 0.131509
0.901695 0.201626 0.134265
0.017709 0.075888 0.004690
0.030049 0.076170 0.004939
0.042330 0.076452 0.005187
0.053537 0.076741 0.005443
0.065180 0.077087 0.005750
0.077389 0.077502 0.006121
0.090010 0.077989 0.006557
0.102935 0.078550 0.007063
0.116089 0.079188 0.007641
0.129418 0.079902 0.008294
0.142883 0.080695 0.009023
0.156455 0.081567 0.009833
0.170112 0.082518 0.010724
0.183839 0.083549 0.011700
0.197623 0.084658 0.012762
0.211453 0.085847 0.013912
0.225323 0.087113 0.015153
0.239226 0.088455 0.016486
0.253156 0.089874 0.017913
0.267111 0.091366 0.019436
0.281086 0.092932 0.021056
0.295078 0.094568 0.022776
0.309087 0.096274 0.024598
0.323109 0.098047 0.026521
0.337143 0.099885 0.028549
0.351187 0.101787 0.030683
0.365241 0.103751 0.032925
0.379303 0.105774 0.035275
0.393372 0.107855 0.037736
0.407449 0.109991 0.040308
0.421531 0.112180 0.042906
0.435619 0.114421 0.045514
0.449711 0.116711 0.048133
0.463808 0.119049 0.050762
0.477910 0.121433 0.053400
0.492014 0.123860 0.056046
0.506123 0.126329 0.058700
0.520234 0.128839 0.061362
0.534348 0.131388 0.064030
0.548465 0.133973 0.066704
0.562585 0.136594 0.069384
0.576706 0.139249 0.072069
0.590830 0.141937 0.074759
0.604955 0.144656 0.077453
0.619083 0.147404 0.080152
0.633212 0.150182 0.082855
0.647343 0.152986 0.085562
0.661475 0.155817 0.088272
0.675608 0.158673 0.090986
0.689743 0.161553 0.093702
0.703879 0.164457 0.096422
0.718016 0.167382 0.099144
0.732154 0.170328 0.101869
0.746293 0.173294 0.104596
0.760433 0.176280 0.107326
0.774574 0.179285 0.110057
0.788716 0.182307 0.112791
0.802858 0.185347 0.115527
0.817001 0.188403 0.118264
0.831145 0.191474 0.121003
0.845290 0.194561 0.123744
0.859435 0.197662 0.126486
0.873581 0.200777 0.129230
0.887727 0.203905 0.131975
0.901874 0.207047 0.134722
0.023114 0.091250 0.006121
0.035454 0.091492 0.006370
0.047321 0.091734 0.006619
0.057855 0.091981 0.006874
0.068946 0.092278 0.007181
0.080692 0.092635 0.007552
0.092927 0.093054 0.007988
0.105530 0.093537 0.008494
0.118414 0.094087 0.009072
0.131514 0.094704 0.009725
0.144785 0.095390 0.010455
0.158190 0.096145 0.011264
0.171703 0.096971 0.012156
0.185304 0.097869 0.013131
0.198978 0.098837 0.014193
0.212712 0.099876 0.015344
0.226495 0.100986 0.016584
0.240322 0.102166 0.017917
0.254184 0.103416 0.019344
0.268077 0.104735 0.020867
0.281996 0.106122 0.022488
0.295939 0.107576 0.024208
0.309901 0.109095 0.026029
0.323881 0.110680 0.027953
0.337877 0.112328 0.029981
0.351886 0.114037 0.032115
0.365907 0.115807 0.034356
0.379939 0.117635 0.036706
0.393981 0.119521 0.039167
0.408032 0.121463 0.041706
0.422090 0.123458 0.044251
0.436155 0.125506 0.046811
0.450227 0.127605 0.049385
0.464305 0.129753 0.051971
0.478388 0.131948 0.054569
0.492475 0.134189 0.057177
0.506567 0.136474 0.059794
0.520664 0.138803 0.062421
0.534764 0.141172 0.065056
0.548867 0.143582 0.067699
0.562974 0.146030 0.070350
0.577083 0.148515 0.073007
0.591195 0.151035 0.075670
0.605310 0.153590 0.078339
0.619427 0.156178 0.081013
0.633546 0.158797 0.083693
0.647668 0.161447 0.086377
0.661791 0.164127 0.089066
0.675916 0.166835 0.091759
0.690042 0.169570 0.094456
0.704170 0.172331 0.097157
0.718300 0.175117 0.099861
0.732431 0.177928 0.102569
0.746563 0.180762 0.105279
0.760697 0.183618 0.107993
0.774831 0.186496 0.110709
0.788967 0.189394 0.113428
0.803104 0.192313 0.116149
0.817241 0.195250 0.118873
0.831380 0.198207 0.121599
0.845520 0.201181 0.124327
0.859660 0.204172 0.127057
0.873801 0.207179 0.129789
0.887943 0.210203 0.132523
0.902085 0.213242 0.135259
0.029375 0.106613 0.007779
0.041683 0.106823 0.008028
0.052706 0.107033 0.008277
0.062585 0.107249 0.008532
0.073117 0.107507 0.008840
0.084384 0.107818 0.009210
0.096210 0.108184 0.009647
0.108466 0.108606 0.010153
0.121054 0.109086 0.010730
0.133903 0.109626 0.011383
0.146957 0.110227 0.012113
0.160175 0.110890 0.012922
0.173526 0.111615 0.013814
0.186986 0.112405 0.014789
0.200535 0.113258 0.015851
0.214159 0.114175 0.017002
0.227845 0.115157 0.018242
0.241584 0.116203 0.019575
0.255368 0.117313 0.021002
0.269191 0.118487 0.022525
0.283047 0.119723 0.024146
0.296931 0.121023 0.025866
0.310841 0.122384 0.027687
0.324773 0.123807 0.029611
0.338725 0.125289 0.031639
0.352693 0.126831 0.033773
0.366677 0.128431 0.036014
0.380675 0.130088 0.038364
0.394685 0.131800 0.040818
0.408706 0.133568 0.043288
0.422736 0.135388 0.045778
0.436776 0.137261 0.048286
0.450824 0.139184 0.050810
0.464879 0.141157 0.053349
0.478941 0.143178 0.055901
0.493009 0.145245 0.058467
0.507082 0.147359 0.061044
0.521161 0.149516 0.063632
0.535244 0.151716 0.066231
0.549332 0.153957 0.068839
0.563424 0.156239 0.071456
0.577519 0.158559 0.074081
0.591618 0.160918 0.076714
0.605720 0.163312 0.079354
0.619825 0.165742 0.082001
0.633933 0.168207 0.084655
0.648044 0.170704 0.087314
0.662157 0.173233 0.089978
0.676272 0.175792 0.092648
0.690389 0.178382 0.095323
0.704508 0.181000 0.098002
0.718629 0.183646 0.100686
0.732752 0.186319 0.103374
0.746876 0.189018 0.106066
0.761002 0.191742 0.108761
0.775129 0.194489 0.111460
0.789258 0.197261 0.114162
0.803388 0.200054 0.116867
0.817519 0.202869 0.119575
0.831652 0.205706 0.122286
0.845785 0.208562 0.125000
0.859920 0.211438 0.127716
0.874055 0.214333 0.130434
0.888192 0.217246 0.133155
0.902329 0.220177 0.135878
0.036528 0.121975 0.009674
0.048273 0.122160 0.009922
0.058430 0.122345 0.010171
0.067681 0.122535 0.010426
0.077662 0.122763 0.010734
0.088440 0.123038 0.011104
0.099842 0.123360 0.011541
0.111732 0.123733 0.012047
0.124005 0.124157 0.012625
0.136581 0.124635 0.013277
0.149399 0.125167 0.014007
0.162413 0.125755 0.014817
0.175585 0.126399 0.015708
0.188888 0.127100 0.016684
0.202299 0.127859 0.017746
0.215800 0.128676 0.018896
0.229376 0.129551 0.020137
0.243018 0.130486 0.021470
0.256714 0.131479 0.022897
0.270457 0.132530 0.024419
0.284241 0.133640 0.026040
0.298061 0.134809 0.027760
0.311911 0.136035 0.029581
0.325789 0.137318 0.031505
0.339690 0.138658 0.033533
0.353613 0.140054 0.035667
0.367555 0.141506 0.037909
0.381513 0.143012 0.040259
0.395487 0.144571 0.042646
0.409474 0.146184 0.045054
0.423473 0.147848 0.047484
0.437484 0.149564 0.049935
0.451504 0.151329 0.052405
0.465534 0.153143 0.054893
0.479572 0.155004 0.057397
0.493617 0.156913 0.059916
0.507669 0.158866 0.062449
0.521728 0.160865 0.064995
0.535793 0.162906 0.067554
0.549863 0.164990 0.070123
0.563938 0.167115 0.072704
0.578017 0.169280 0.075294
0.592101 0.171484 0.077893
0.606189 0.173725 0.080502
0.620280 0.176004 0.083118
0.634375 0.178318 0.085742
0.648473 0.180667 0.088373
0.662574 0.183049 0.091011
0.676678 0.185464 0.093655
0.690785 0.187911 0.096305
0.704893 0.190388 0.098960
0.719005 0.192895 0.101621
0.733118 0.195431 0.104287
0.747233 0.197995 0.106958
0.761351 0.200586 0.109633
0.775470 0.203204 0.112312
0.789591 0.205846 0.114995
0.803713 0.208514 0.117682
0.817837 0.211205 0.120373
0.831962 0.213919 0.123067
0.846089 0.216656 0.125764
0.860217 0.219414 0.128464
0.874346 0.222193 0.131167
0.888476 0.224993 0.133873
0.902608 0.227812 0.136582
0.044420 0.137337 0.011813
0.055070 0.137502 0.012061
0.064443 0.137667 0.012310
0.073102 0.137836 0.012566
0.082545 0.138040 0.012873
0.092836 0.138284 0.013243
0.103805 0.138572 0.013680
0.115315 0.138904 0.014186
0.127256 0.139283 0.014764
0.139543 0.139709 0.015417
0.152109 0.140185 0.016146
0.164901 0.140710 0.016956
0.177879 0.141287 0.017847
0.191011 0.141915 0.018823
0.204270 0.142595 0.019885
0.217635 0.143329 0.021035
0.231092 0.144116 0.022276
0.244625 0.144956 0.023609
0.258223 0.145851 0.025036
0.271879 0.146799 0.026559
0.285583 0.147801 0.028179
0.299330 0.148858 0.029899
0.313114 0.149968 0.031720
0.326931 0.151132 0.033644
0.340777 0.152349 0.035672
0.354648 0.153618 0.037806
0.368543 0.154941 0.040048
0.382457 0.156314 0.042339
0.396390 0.157740 0.044654
0.410340 0.159215 0.046996
0.424304 0.160741 0.049364
0.438281 0.162316 0.051755
0.452271 0.163939 0.054168
0.466272 0.165609 0.056601
0.480283 0.167327 0.059053
0.494303 0.169090 0.061522
0.508331 0.170898 0.064008
0.522368 0.172751 0.066508
0.536411 0.174646 0.069023
0.550461 0.176584 0.071552
0.564517 0.178563 0.074092
0.578579 0.180583 0.076645
0.592645 0.182641 0.079208
0.606717 0.184739 0.081781
0.620793 0.186873 0.084364
0.634873 0.189045 0.086956
0.648958 0.191252 0.089556
0.663045 0.193494 0.092164
0.677137 0.195769 0.094780
0.691231 0.198078 0.097403
0.705328 0.200419 0.100032
0.719429 0.202791 0.102668
0.733531 0.205193 0.105309
0.747637 0.207625 0.107956
0.761744 0.210085 0.110609
0.775854 0.212574 0.113267
0.789966 0.215089 0.115929
0.804080 0.217631 0.118596
0.818195 0.220199 0.121267
0.832313 0.222791 0.123942
0.846432 0.225407 0.126621
0.860552 0.228047 0.129304
0.874674 0.230710 0.131990
0.888798 0.233394 0.134680
0.902923 0.236101 0.137373
0.052361 0.152700 0.014205
0.062034 0.152848 0.014454
0.070701 0.152996 0.014703
0.078806 0.153148 0.014958
0.087733 0.153331 0.015265
0.097544 0.153550 0.015636
0.108079 0.153809 0.016072
0.119201 0.154108 0.016578
0.130799 0.154449 0.017156
0.142783 0.154833 0.017809
0.155082 0.155261 0.018539
0.167638 0.155735 0.019348
0.180408 0.156255 0.020240
0.193355 0.156822 0.021215
0.206449 0.157436 0.022277
0.219668 0.158099 0.023428
0.232993 0.158811 0.024668
0.246408 0.159572 0.026001
0.259900 0.160383 0.027428
0.273458 0.161243 0.028951
0.287075 0.162154 0.030572
0.300742 0.163114 0.032292
0.314453 0.164125 0.034113
0.328203 0.165185 0.036037
0.341987 0.166296 0.038065
0.355802 0.167456 0.040199
0.369644 0.168665 0.042379
0.383510 0.169923 0.044591
0.397398 0.171230 0.046835
0.411305 0.172585 0.049109
0.425230 0.173987 0.051412
0.439171 0.175437 0.053740
0.453127 0.176933 0.056093
0.467096 0.178475 0.058469
0.481077 0.180063 0.060866
0.495069 0.181695 0.063282
0.509071 0.183371 0.065718
0.523082 0.185090 0.068170
0.537102 0.186852 0.070639
0.551129 0.188655 0.073123
0.565164 0.190500 0.075621
0.579206 0.192384 0.078132
0.593254 0.194308 0.080656
0.607307 0.196271 0.083192
0.621366 0.198271 0.085739
0.635430 0.200308 0.088296
0.649499 0.202382 0.090863
0.663572 0.204490 0.093439
0.677649 0.206633 0.096024
0.691730 0.208810 0.098617
0.705814 0.211020 0.101218
0.719902 0.213262 0.103827
0.733993 0.215536 0.106442
0.748087 0.217840 0.109064
0.762184 0.220173 0.111692
0.776283 0.222536 0.114325
0.790385 0.224928 0.116965
0.804489 0.227347 0.119610
0.818596 0.229792 0.122260
0.832704 0.232265 0.124914
0.846815 0.234762 0.127573
0.860927 0.237285 0.130237
0.875041 0.239832 0.132905
0.889157 0.242402 0.135576
0.903274 0.244995 0.138252
0.060302 0.168062 0.016859
0.069136 0.168196 0.017107
0.077167 0.168330 0.017356
0.084759 0.168468 0.017611
0.093194 0.168633 0.017919
0.102539 0.168832 0.018289
0.112644 0.169066 0.018726
0.123375 0.169337 0.019232
0.134621 0.169646 0.019810
0.146292 0.169995 0.020462
0.158312 0.170383 0.021192
0.170620 0.170813 0.022002
0.183169 0.171285 0.022893
0.195919 0.171800 0.023869
0.208837 0.172359 0.024931
0.221899 0.172962 0.026081
0.235082 0.173610 0.027322
0.248368 0.174303 0.028655
0.261745 0.175042 0.030082
0.275198 0.175827 0.031604
0.288719 0.176659 0.033225
0.302299 0.177536 0.034945
0.315930 0.178461 0.036766
0.329606 0.179432 0.038690
0.343323 0.180449 0.040713
0.357076 0.181513 0.042772
0.370860 0.182623 0.044871
0.384673 0.183780 0.047008
0.398511 0.184982 0.049180
0.412372 0.186231 0.051385
0.426255 0.187524 0.053620
0.440156 0.188863 0.055884
0.454074 0.190246 0.058175
0.468007 0.191673 0.060491
0.481955 0.193143 0.062831
0.495916 0.194657 0.065193
0.509889 0.196214 0.067575
0.523873 0.197812 0.069977
0.537866 0.199452 0.072397
0.551869 0.201133 0.074834
0.565881 0.202854 0.077288
0.579900 0.204614 0.079756
0.593927 0.206413 0.082238
0.607961 0.208251 0.084734
0.622001 0.210126 0.087243
0.636047 0.212038 0.089763
0.650099 0.213986 0.092294
0.664155 0.215969 0.094836
0.678217 0.217988 0.097388
0.692283 0.220040 0.099949
0.706353 0.222126 0.102520
0.720427 0.224244 0.105098
0.734505 0.226395 0.107685
0.748586 0.228576 0.110279
0.762671 0.230788 0.112881
0.776759 0.233031 0.115489
0.790850 0.235302 0.118104
0.804943 0.237602 0.120725
0.819039 0.239930 0.123352
0.833138 0.242285 0.125984
0.847239 0.244667 0.128622
0.861342 0.247074 0.131264
0.875448 0.249507 0.133912
0.889555 0.251965 0.136564
0.903664 0.254447 0.139220
0.068242 0.183425 0.019781
0.076349 0.183547 0.020029
0.083810 0.183669 0.020278
0.090928 0.183794 0.020533
0.098900 0.183945 0.020841
0.107795 0.184126 0.021211
0.117477 0.184340 0.021648
0.127817 0.184587 0.022154
0.138709 0.184869 0.022732
0.150059 0.185187 0.023384
0.161791 0.185541 0.024114
0.173841 0.185934 0.024924
0.186159 0.186365 0.025815
0.198701 0.186836 0.026791
0.211433 0.187346 0.027853
0.224326 0.187898 0.029003
0.237358 0.188491 0.030244
0.250507 0.189126 0.031577
0.263759 0.189803 0.033004
0.277099 0.190523 0.034527
0.290517 0.191286 0.036147
0.304002 0.192092 0.037867
0.317547 0.192941 0.039688
0.331144 0.193834 0.041583
0.344787 0.194770 0.043517
0.358472 0.195750 0.045497
0.372194 0.196774 0.047519
0.385949 0.197841 0.049580
0.399733 0.198951 0.051679
0.413544 0.200105 0.053814
0.427379 0.201302 0.055981
0.441237 0.202541 0.058180
0.455114 0.203823 0.060408
0.469009 0.205147 0.062663
0.482920 0.206513 0.064944
0.496847 0.207920 0.067249
0.510788 0.209368 0.069577
0.524741 0.210857 0.071926
0.538707 0.212387 0.074295
0.552683 0.213955 0.076684
0.566669 0.215563 0.079090
0.580664 0.217210 0.081513
0.594668 0.218895 0.083951
0.608680 0.220617 0.086405
0.622699 0.222376 0.088873
0.636725 0.224172 0.091354
0.650758 0.226003 0.093848
0.664797 0.227870 0.096354
0.678841 0.229771 0.098870
0.692891 0.231707 0.101398
0.706945 0.233676 0.103936
0.721004 0.235677 0.106483
0.735068 0.237711 0.109039
0.749136 0.239777 0.111604
0.763207 0.241873 0.114177
0.777282 0.244000 0.116758
0.791361 0.246157 0.119346
0.805443 0.248342 0.121941
0.819528 0.250557 0.124543
0.833616 0.252799 0.127152
0.847706 0.255069 0.129766
0.861799 0.257365 0.132386
0.875895 0.259688 0.135012
0.889993 0.262036 0.137643
0.904093 0.264409 0.140279
0.076183 0.198787 0.022979
0.083657 0.198899 0.023227
0.090605 0.199011 0.023476
0.097287 0.199126 0.023731
0.104822 0.199264 0.024039
0.113288 0.199430 0.024409
0.122557 0.199626 0.024846
0.132513 0.199853 0.025352
0.143049 0.200111 0.025930
0.154074 0.200403 0.026582
0.165511 0.200728 0.027312
0.177296 0.201088 0.028122
0.189372 0.201484 0.029013
0.201697 0.201917 0.029989
0.214233 0.202386 0.031051
0.226950 0.202893 0.032201
0.239820 0.203439 0.033442
0.252824 0.204023 0.034775
0.265943 0.204647 0.036202
0.279163 0.205310 0.037725
0.292470 0.206013 0.039345
0.305854 0.206756 0.041052
0.319305 0.207540 0.042805
0.332817 0.208364 0.044609
0.346381 0.209229 0.046464
0.359993 0.210135 0.048365
0.373647 0.211082 0.050310
0.387339 0.212070 0.052297
0.401065 0.213099 0.054324
0.414822 0.214169 0.056388
0.428606 0.215279 0.058488
0.442416 0.216430 0.060620
0.456248 0.217622 0.062784
