PG39WCDM_HDR_Correction_SDR.cube
TITLE "PG39WCDM HDR Correction - ColorControl LUT - SDR"
DOMAIN_MIN 0.0 0.0 0.0
DOMAIN_MAX 1.0 1.0 1.0
LUT_3D_SIZE 5
# SDR LUT using sRGB/Rec.709 color space with gamma encoding
# Max luminance: 100 cd/m²
# Min luminance: 0 cd/m²
# Companion SDR LUT for standard dynamic range workflows
0.000000 0.000000 0.000000
0.221432 0.018841 0.010463
0.448016 0.071332 0.043873
0.674599 0.128238 0.088410
0.901183 0.185144 0.132948
0.100006 0.244874 0.034297
0.248313 0.248572 0.044563
0.460236 0.260028 0.070699
0.681932 0.280222 0.105955
0.906221 0.308487 0.145423
0.227060 0.490673 0.107146
0.317775 0.492283 0.111946
0.496931 0.497402 0.126171
0.704787 0.506904 0.149471
0.922135 0.521182 0.179546
0.354114 0.736471 0.180185
0.414323 0.737429 0.183071
0.558266 0.740490 0.192013
0.745548 0.746232 0.207780
0.951269 0.755008 0.229856
0.481168 0.982270 0.253224
0.524276 0.982926 0.255209
0.639066 0.985027 0.261456
0.803447 0.988981 0.272818
0.994165 0.995062 0.289389
0.008691 0.007360 0.241168
0.223351 0.026201 0.243265
0.448849 0.076093 0.249857
0.675095 0.131110 0.261801
0.901522 0.187121 0.279135
0.104258 0.246326 0.247968
0.250000 0.250000 0.250000
0.461041 0.261383 0.256394
0.682420 0.281466 0.268003
0.906558 0.309597 0.284901
0.228926 0.491303 0.268455
0.319041 0.492910 0.270310
0.497662 0.498021 0.276164
0.705255 0.507508 0.286852
0.922464 0.521765 0.302529
0.355226 0.736846 0.302884
0.415240 0.737803 0.304496
0.558897 0.740862 0.309599
0.745983 0.746600 0.318983
0.951585 0.755370 0.332890
0.481930 0.982526 0.348496
0.524960 0.983182 0.349860
0.639597 0.985282 0.354191
0.803842 0.989236 0.362209
0.994463 0.995314 0.374211
0.036563 0.030963 0.483929
0.229384 0.049093 0.484839
0.451508 0.089939 0.487745
0.676680 0.139928 0.493181
0.902609 0.193315 0.501448
0.116928 0.250919 0.486906
0.255324 0.254517 0.487809
0.463613 0.265678 0.490693
0.683984 0.285411 0.496088
0.907637 0.313128 0.504295
0.234798 0.493315 0.496302
0.323060 0.494915 0.497184
0.500000 0.500000 0.500000
0.706753 0.509440 0.505270
0.923519 0.523631 0.513293
0.358763 0.738045 0.513479
0.418167 0.739000 0.514324
0.560916 0.742052 0.517023
0.747376 0.747779 0.522077
0.952597 0.756531 0.529780
0.484364 0.983348 0.538717
0.527146 0.984003 0.539512
0.641297 0.986101 0.542053
0.805106 0.990050 0.546816
0.995418 0.996122 0.554086
0.077739 0.068856 0.726689
0.240324 0.080890 0.727231
0.456482 0.111992 0.728964
0.679664 0.155226 0.732225
0.904660 0.204468 0.737237
0.137849 0.259347 0.728462
0.265053 0.262812 0.729002
0.468427 0.273584 0.730729
0.686927 0.292699 0.733981
0.909672 0.319676 0.738977
0.245465 0.497093 0.734110
0.330500 0.498677 0.734644
0.504382 0.503714 0.736354
0.709574 0.513069 0.739574
0.925508 0.527136 0.744521
0.365337 0.740304 0.744636
0.423632 0.741256 0.745160
0.564709 0.744296 0.746839
0.750000 0.750000 0.750000
0.954506 0.758719 0.754858
0.488923 0.984899 0.760556
0.531247 0.985553 0.761066
0.644494 0.987646 0.762700
0.807487 0.991587 0.765775
0.997220 0.997646 0.770504
0.118962 0.107320 0.969450
0.256219 0.115816 0.969821
0.464050 0.139732 0.971009
0.684250 0.176223 0.973250
0.907821 0.220514 0.976705
0.165069 0.271802 0.970665
0.279345 0.275085 0.971035
0.475758 0.285321 0.972221
0.691450 0.303576 0.974459
0.912811 0.329507 0.977908
0.261003 0.502869 0.974548
0.341635 0.504430 0.974916
0.511072 0.509396 0.976096
0.713912 0.518621 0.978321
0.928576 0.532504 0.981753
0.375238 0.743784 0.981833
0.431922 0.744730 0.982198
0.570515 0.747751 0.983366
0.754038 0.753422 0.985570
0.957452 0.762090 0.988968
0.495877 0.987293 0.992970
0.537517 0.987945 0.993329
0.649403 0.990031 0.994480
0.811156 0.993960 0.996652
1.000000 1.000000 1.000000
